packages/sources/assets/src/assets/flag-lb.svg

<svg width="28" height="20" viewBox="0 0 28 20" fill="none" xmlns="http://www.w3.org/2000/svg">
<rect x="0.25" y="0.25" width="27.5" height="19.5" rx="1.75" fill="white" stroke="#F5F5F5" stroke-width="0.5"/>
<mask id="mask0_503_4045" style="mask-type:alpha" maskUnits="userSpaceOnUse" x="0" y="0" width="28" height="20">
<rect x="0.25" y="0.25" width="27.5" height="19.5" rx="1.75" fill="white" stroke="white" stroke-width="0.5"/>
</mask>
<g mask="url(#mask0_503_4045)">
<path fill-rule="evenodd" clip-rule="evenodd" d="M0 5.33333H28V0H0V5.33333Z" fill="#F03340"/>
<path fill-rule="evenodd" clip-rule="evenodd" d="M0 20H28V14.6667H0V20Z" fill="#F03340"/>
<path fill-rule="evenodd" clip-rule="evenodd" d="M12.9428 12.3905C13.1585 12.1748 13.1585 11.8251 12.9428 11.6095L12.8661 11.5328C12.7424 11.409 12.5628 11.3593 12.3931 11.4017L12.0138 11.4965C11.5701 11.6075 11.2948 11.0289 11.6606 10.7545L12.0033 10.4975C12.2158 10.3381 12.1031 9.99999 11.8375 9.99999C11.5458 9.99999 11.453 9.60682 11.7139 9.47638L12.2861 9.19026C12.547 9.05983 12.4542 8.66666 12.1625 8.66666C11.8969 8.66666 11.7842 8.32852 11.9967 8.16915L13.6 6.96666C13.837 6.78888 14.163 6.78888 14.4 6.96666L16.0033 8.16915C16.2158 8.32852 16.1031 8.66666 15.8375 8.66666C15.5458 8.66666 15.453 9.05983 15.7139 9.19026L16.2861 9.47638C16.547 9.60682 16.4542 9.99999 16.1625 9.99999C15.8969 9.99999 15.7842 10.3381 15.9967 10.4975L16.3394 10.7545C16.7052 11.0289 16.4299 11.6075 15.9862 11.4965L15.6069 11.4017C15.4372 11.3593 15.2576 11.409 15.1339 11.5328L15.0572 11.6095C14.8415 11.8251 14.8415 12.1748 15.0572 12.3905C15.4051 12.7384 15.1587 13.3333 14.6667 13.3333H13.3333C12.8413 13.3333 12.5949 12.7384 12.9428 12.3905Z" fill="#1FC065"/>
</g>
</svg>

<svg width="28" height="20" fill="none" xmlns="http://www.w3.org/2000/svg"><rect x=".25" y=".25" width="27.5" height="19.5" rx="1.75" fill="#fff" stroke="#F5F5F5" stroke-width=".5"/><mask id="a" style="mask-type:alpha" maskUnits="userSpaceOnUse" x="0" y="0" width="28" height="20"><rect x=".25" y=".25" width="27.5" height="19.5" rx="1.75" fill="#fff" stroke="#fff" stroke-width=".5"/></mask><g mask="url(#a)" fill-rule="evenodd" clip-rule="evenodd"><path d="M0 5.333h28V0H0v5.333ZM0 20h28v-5.333H0V20Z" fill="#F03340"/><path d="M12.943 12.39a.552.552 0 0 0 0-.78l-.077-.077a.498.498 0 0 0-.473-.131l-.38.095c-.443.11-.718-.468-.352-.742l.342-.258a.276.276 0 0 0-.165-.497c-.292 0-.385-.393-.124-.524l.572-.286c.261-.13.168-.523-.123-.523a.276.276 0 0 1-.166-.498L13.6 6.967a.667.667 0 0 1 .8 0l1.603 1.202c.213.16.1.498-.165.498-.292 0-.385.393-.124.523l.572.286c.261.13.168.524-.123.524a.276.276 0 0 0-.166.498l.342.257c.366.274.09.852-.353.741l-.38-.094a.498.498 0 0 0-.472.13l-.077.078a.552.552 0 0 0 0 .78.552.552 0 0 1-.39.943h-1.334a.552.552 0 0 1-.39-.943Z" fill="#1FC065"/></g></svg>
